austria/municipalities/40440.svg

<?xml version="1.0" encoding="UTF-8"?>
<!DOCTYPE svg PUBLIC "-//W3C//DTD SVG 1.1//EN" "http://www.w3.org/Graphics/SVG/1.1/DTD/svg11.dtd">
<svg xmlns="http://www.w3.org/2000/svg" version="1.1" width="166px" height="207px" style="shape-rendering:geometricPrecision; text-rendering:geometricPrecision; image-rendering:optimizeQuality; fill-rule:evenodd; clip-rule:evenodd" xmlns:xlink="http://www.w3.org/1999/xlink">
<g><path style="opacity:1" fill="#000000" d="M -0.5,-0.5 C 54.8333,-0.5 110.167,-0.5 165.5,-0.5C 165.5,44.1667 165.5,88.8333 165.5,133.5C 157.475,172.524 134.142,196.858 95.5,206.5C 86.8333,206.5 78.1667,206.5 69.5,206.5C 30.0061,196.67 6.67281,171.67 -0.5,131.5C -0.5,87.5 -0.5,43.5 -0.5,-0.5 Z"/></g>
<g><path style="opacity:1" fill="#fe9900" d="M 69.5,15.5 C 83.0228,14.7399 96.3562,15.9066 109.5,19C 116.323,22.8984 115.989,26.2317 108.5,29C 93.6543,32.7806 78.6543,33.4472 63.5,31C 59.3153,30.242 55.3153,28.9087 51.5,27C 49.7888,25.8668 49.2888,24.3668 50,22.5C 51.4095,21.2125 52.9095,20.0458 54.5,19C 59.5962,17.6404 64.5962,16.4737 69.5,15.5 Z"/></g>
<g><path style="opacity:1" fill="#000000" d="M 75.5,17.5 C 83.5242,17.5659 91.5242,18.0659 99.5,19C 103.882,19.5911 107.882,21.0911 111.5,23.5C 111.023,24.4776 110.357,25.3109 109.5,26C 105.653,27.6156 101.653,28.6156 97.5,29C 85.1284,29.8431 72.795,29.5098 60.5,28C 58.2222,27.0138 55.8889,26.1805 53.5,25.5C 52.1667,24.5 52.1667,23.5 53.5,22.5C 60.6725,19.5373 68.0058,17.8706 75.5,17.5 Z"/></g>
<g><path style="opacity:1" fill="#fe9900" d="M 75.5,19.5 C 83.5242,19.5659 91.5242,20.0659 99.5,21C 102.702,21.5468 105.702,22.5468 108.5,24C 107.051,25.117 105.384,25.7837 103.5,26C 88.8389,29.2829 74.1722,29.2829 59.5,26C 56.7326,25.3308 56.2326,24.1641 58,22.5C 63.9273,21.2297 69.7606,20.2297 75.5,19.5 Z"/></g>
<g><path style="opacity:1" fill="#fe9900" d="M 48.5,26.5 C 52.0948,29.1294 56.0948,30.9627 60.5,32C 78.1803,36.1586 95.5136,35.1586 112.5,29C 113.333,28.1667 114.167,27.3333 115,26.5C 115.495,28.4727 115.662,30.4727 115.5,32.5C 100.281,37.7736 84.6142,39.6069 68.5,38C 61.5562,37.5147 55.2229,35.3481 49.5,31.5C 48.5481,29.9547 48.2148,28.288 48.5,26.5 Z"/></g>
<g><path style="opacity:1" fill="#fd9700" d="M 51.5,35.5 C 71.4429,42.0389 91.4429,42.0389 111.5,35.5C 114.158,41.486 113.992,47.486 111,53.5C 109.536,48.6536 106.536,46.3203 102,46.5C 101.639,49.4371 102.139,52.2704 103.5,55C 102.503,56.5955 101.337,58.0955 100,59.5C 99.6667,62.5 99.3333,65.5 99,68.5C 96.4503,69.98 94.6169,69.3133 93.5,66.5C 95.39,63.3871 96.7233,60.0537 97.5,56.5C 97.4435,55.263 96.9435,54.263 96,53.5C 91.4719,57.4134 86.9719,61.4134 82.5,65.5C 79.6521,63.5757 76.6521,61.909 73.5,60.5C 72.316,58.9539 71.316,57.2873 70.5,55.5C 69.3036,56.5594 68.637,57.8927 68.5,59.5C 69.1667,61.8333 69.8333,64.1667 70.5,66.5C 70.0367,69.5071 68.5367,70.5071 66,69.5C 65.6667,66.5 65.3333,63.5 65,60.5C 61.811,56.3832 61.9777,52.2165 65.5,48C 60.6694,48.1707 56.8361,50.3374 54,54.5C 50.4443,48.5733 49.6109,42.24 51.5,35.5 Z"/></g>
<g><path style="opacity:1" fill="#000000" d="M 77.5,46.5 C 75.9826,46.5106 74.8159,47.1772 74,48.5C 73.8333,48.1667 73.6667,47.8333 73.5,47.5C 75.3603,46.0613 77.027,44.3947 78.5,42.5C 78.8333,42.6667 79.1667,42.8333 79.5,43C 78.695,44.1127 78.0283,45.2794 77.5,46.5 Z"/></g>
<g><path style="opacity:1" fill="#000000" d="M 88.5,45.5 C 87.448,45.3505 86.448,45.5172 85.5,46C 86.745,46.7914 88.0783,47.2914 89.5,47.5C 89.8186,49.7505 89.3186,51.7505 88,53.5C 87.5078,52.451 87.6744,51.451 88.5,50.5C 87.8333,50.1667 87.1667,49.8333 86.5,49.5C 83.4344,52.0287 80.4344,52.0287 77.5,49.5C 77.5,48.5 77.5,47.5 77.5,46.5C 79.253,49.8155 81.4197,50.1489 84,47.5C 82.9917,41.6889 84.4917,41.0222 88.5,45.5 Z"/></g>
<g><path style="opacity:1" fill="#cb0000" d="M 119.5,43.5 C 122.314,44.4505 123.648,46.4505 123.5,49.5C 122.891,53.4348 121.891,57.2681 120.5,61C 120.946,62.7259 121.779,64.2259 123,65.5C 124.303,59.2427 127.803,54.5761 133.5,51.5C 134.476,53.1233 133.976,54.4567 132,55.5C 131.886,62.5789 131.219,69.5789 130,76.5C 125.664,82.4178 119.831,85.2512 112.5,85C 103.701,93.7935 93.3677,96.2935 81.5,92.5C 69.8752,94.8261 59.5419,92.3261 50.5,85C 42.5413,84.3705 36.708,80.5372 33,73.5C 30.8746,66.856 30.0413,60.1893 30.5,53.5C 35.8403,56.1774 38.6736,60.5108 39,66.5C 39.7175,67.4506 40.5509,67.6172 41.5,67C 42.5914,64.9361 42.7581,62.7695 42,60.5C 38.939,55.1234 39.7723,50.2901 44.5,46C 45.5,45.3333 46.5,45.3333 47.5,46C 44.9035,48.3167 44.0701,51.15 45,54.5C 49.3604,58.8604 53.527,63.027 57.5,67C 53.2749,60.5449 54.4415,55.0449 61,50.5C 60.5783,53.0977 60.5783,55.7644 61,58.5C 63.9584,61.3842 64.7917,64.7175 63.5,68.5C 68.0013,74.2715 71.0013,73.4382 72.5,66C 71.6705,64.5349 71.5038,63.0349 72,61.5C 76.4968,63.1556 80.3302,65.8222 83.5,69.5C 84.9205,63.5705 88.5872,60.4039 94.5,60C 93.5,62.3333 92.5,64.6667 91.5,67C 94.1067,71.9935 97.2734,72.4935 101,68.5C 101.333,65.5 101.667,62.5 102,59.5C 102.667,58.8333 103.333,58.1667 104,57.5C 104.32,54.4601 104.32,51.4601 104,48.5C 105.955,49.4533 107.622,50.7866 109,52.5C 110.075,57.2072 110.741,61.8739 111,66.5C 111.794,63.5285 112.461,60.5285 113,57.5C 116.709,54.8023 119.209,51.3023 120.5,47C 120.011,45.8615 119.678,44.6948 119.5,43.5 Z"/></g>
<g><path style="opacity:1" fill="#fe9900" d="M 88.5,45.5 C 88.8333,46.1667 89.1667,46.8333 89.5,47.5C 88.0783,47.2914 86.745,46.7914 85.5,46C 86.448,45.5172 87.448,45.3505 88.5,45.5 Z"/></g>
<g><path style="opacity:1" fill="#000000" d="M 88.5,45.5 C 90.6859,45.5106 91.5192,46.5106 91,48.5C 90.6174,47.944 90.1174,47.6107 89.5,47.5C 89.1667,46.8333 88.8333,46.1667 88.5,45.5 Z"/></g>
<g><path style="opacity:1" fill="#000000" d="M 75.5,55.5 C 72.872,54.3752 72.0387,52.3752 73,49.5C 73.5725,51.6406 74.4058,53.6406 75.5,55.5 Z"/></g>
<g><path style="opacity:1" fill="#000000" d="M 77.5,49.5 C 77.33,50.8221 77.6634,51.9887 78.5,53C 81.1667,53.3333 83.8333,53.6667 86.5,54C 83.5,54.6667 80.5,54.6667 77.5,54C 75.0185,52.1962 75.0185,50.6962 77.5,49.5 Z"/></g>
<g><path style="opacity:1" fill="#000000" d="M 90.5,52.5 C 91.525,52.8966 91.6917,53.5632 91,54.5C 90.1627,56.0074 88.9961,56.5074 87.5,56C 88.7101,54.9609 89.7101,53.7942 90.5,52.5 Z"/></g>
<g><path style="opacity:1" fill="#000000" d="M 75.5,55.5 C 76.9217,55.7086 78.255,56.2086 79.5,57C 77.6476,57.7726 76.3143,57.2726 75.5,55.5 Z"/></g>
<g><path style="opacity:1" fill="#003266" d="M 3.5,86.5 C 12.5607,89.298 21.5607,92.298 30.5,95.5C 31.6665,124.828 31.8332,154.161 31,183.5C 16.5428,170.259 7.54278,153.925 4,134.5C 3.50007,118.503 3.33341,102.503 3.5,86.5 Z"/></g>
<g><path style="opacity:1" fill="#003266" d="M 158.5,86.5 C 159.5,86.5 160.5,86.5 161.5,86.5C 161.667,103.17 161.5,119.837 161,136.5C 157.447,155.271 148.447,170.938 134,183.5C 133.167,154.161 133.333,124.828 134.5,95.5C 142.743,92.8674 150.743,89.8674 158.5,86.5 Z"/></g>
<g><path style="opacity:1" fill="#fefffe" d="M 33.5,96.5 C 42.808,99.8167 52.1413,103.15 61.5,106.5C 62.8333,137.833 62.8333,169.167 61.5,200.5C 51.1784,197.462 42.0117,192.462 34,185.5C 33.5,155.835 33.3334,126.169 33.5,96.5 Z"/></g>
<g><path style="opacity:1" fill="#fefffe" d="M 130.5,96.5 C 131.664,125.997 131.831,155.664 131,185.5C 122.948,192.468 113.782,197.468 103.5,200.5C 102.5,169.174 102.167,137.84 102.5,106.5C 112.135,103.735 121.469,100.401 130.5,96.5 Z"/></g>
<g><path style="opacity:1" fill="#003266" d="M 63.5,107.5 C 69.8992,109.194 76.2325,111.194 82.5,113.5C 88.2785,111.776 93.9451,109.776 99.5,107.5C 100.5,138.826 100.833,170.16 100.5,201.5C 94.3544,202.043 88.1877,202.376 82,202.5C 75.841,202.721 69.841,202.054 64,200.5C 63.5,169.502 63.3334,138.502 63.5,107.5 Z"/></g>
<g><path style="opacity:1" fill="#fefffe" d="M -0.5,131.5 C 6.67281,171.67 30.0061,196.67 69.5,206.5C 46.1667,206.5 22.8333,206.5 -0.5,206.5C -0.5,181.5 -0.5,156.5 -0.5,131.5 Z"/></g>
<g><path style="opacity:1" fill="#fefffe" d="M 165.5,133.5 C 165.5,157.833 165.5,182.167 165.5,206.5C 142.167,206.5 118.833,206.5 95.5,206.5C 134.142,196.858 157.475,172.524 165.5,133.5 Z"/></g>
</svg>

<svg xmlns="http://www.w3.org/2000/svg" width="166" height="207" style="shape-rendering:geometricPrecision;text-rendering:geometricPrecision;image-rendering:optimizeQuality;fill-rule:evenodd;clip-rule:evenodd"><path style="opacity:1" d="M-.5-.5h166v134c-8.025 39.024-31.358 63.358-70 73h-26c-39.494-9.83-62.827-34.83-70-75V-.5z"/><path style="opacity:1" fill="#fe9900" d="M69.5 15.5c13.523-.76 26.856.407 40 3.5 6.823 3.898 6.489 7.232-1 10-14.846 3.78-29.846 4.447-45 2a44.36 44.36 0 0 1-12-4c-1.711-1.133-2.211-2.633-1.5-4.5a35.94 35.94 0 0 1 4.5-3.5 238.16 238.16 0 0 1 15-3.5z"/><path style="opacity:1" d="M75.5 17.5c8.024.066 16.024.566 24 1.5 4.382.591 8.382 2.091 12 4.5a7.253 7.253 0 0 1-2 2.5 40.438 40.438 0 0 1-12 3c-12.372.843-24.705.51-37-1a56.683 56.683 0 0 0-7-2.5c-1.333-1-1.333-2 0-3 7.172-2.963 14.506-4.63 22-5z"/><path style="opacity:1" fill="#fe9900" d="M75.5 19.5c8.024.066 16.024.566 24 1.5 3.202.547 6.202 1.547 9 3-1.449 1.117-3.116 1.784-5 2-14.661 3.283-29.328 3.283-44 0-2.767-.67-3.267-1.836-1.5-3.5a209.78 209.78 0 0 1 17.5-3z"/><path style="opacity:1" fill="#fe9900" d="M48.5 26.5c3.595 2.63 7.595 4.463 12 5.5 17.68 4.159 35.014 3.159 52-3l2.5-2.5c.495 1.973.662 3.973.5 6-15.219 5.274-30.886 7.107-47 5.5-6.944-.485-13.277-2.652-19-6.5-.952-1.545-1.285-3.212-1-5z"/><path style="opacity:1" fill="#fd9700" d="M51.5 35.5c19.943 6.539 39.943 6.539 60 0 2.658 5.986 2.492 11.986-.5 18-1.464-4.846-4.464-7.18-9-7-.361 2.937.139 5.77 1.5 8.5a28.162 28.162 0 0 1-3.5 4.5l-1 9c-2.55 1.48-4.383.813-5.5-2a32.517 32.517 0 0 0 4-10c-.056-1.237-.556-2.237-1.5-3a652.048 652.048 0 0 0-13.5 12 59.18 59.18 0 0 0-9-5 25.86 25.86 0 0 1-3-5c-1.196 1.06-1.863 2.393-2 4l2 7c-.463 3.007-1.963 4.007-4.5 3l-1-9c-3.189-4.117-3.022-8.283.5-12.5-4.83.17-8.664 2.337-11.5 6.5-3.556-5.927-4.39-12.26-2.5-19z"/><path style="opacity:1" d="M77.5 46.5c-1.517.01-2.684.677-3.5 2l-.5-1a28.061 28.061 0 0 0 5-5l1 .5a18.492 18.492 0 0 0-2 3.5zM88.5 45.5a4.932 4.932 0 0 0-3 .5 10.123 10.123 0 0 0 4 1.5c.319 2.25-.181 4.25-1.5 6-.492-1.049-.326-2.049.5-3l-2-1c-3.066 2.529-6.066 2.529-9 0v-3c1.753 3.316 3.92 3.649 6.5 1-1.008-5.811.492-6.478 4.5-2z"/><path style="opacity:1" fill="#cb0000" d="M119.5 43.5c2.814.95 4.148 2.95 4 6a58.43 58.43 0 0 1-3 11.5 10.017 10.017 0 0 0 2.5 4.5c1.303-6.257 4.803-10.924 10.5-14 .976 1.623.476 2.957-1.5 4a133.245 133.245 0 0 1-2 21c-4.336 5.918-10.169 8.751-17.5 8.5-8.799 8.793-19.132 11.293-31 7.5-11.625 2.326-21.958-.174-31-7.5-7.959-.63-13.792-4.463-17.5-11.5-2.125-6.644-2.959-13.31-2.5-20 5.34 2.677 8.174 7.01 8.5 13 .718.95 1.55 1.117 2.5.5 1.091-2.064 1.258-4.23.5-6.5-3.061-5.377-2.228-10.21 2.5-14.5 1-.667 2-.667 3 0-2.596 2.317-3.43 5.15-2.5 8.5L57.5 67c-4.225-6.455-3.059-11.955 3.5-16.5-.422 2.598-.422 5.264 0 8 2.958 2.884 3.792 6.218 2.5 10 4.501 5.772 7.501 4.938 9-2.5-.83-1.465-.996-2.965-.5-4.5 4.497 1.656 8.33 4.322 11.5 8 1.42-5.93 5.087-9.096 11-9.5l-3 7c2.607 4.993 5.773 5.493 9.5 1.5l1-9 2-2c.32-3.04.32-6.04 0-9a14.505 14.505 0 0 1 5 4 83.858 83.858 0 0 1 2 14 108.484 108.484 0 0 0 2-9c3.709-2.698 6.209-6.198 7.5-10.5a14.102 14.102 0 0 1-1-3.5z"/><path style="opacity:1" fill="#fe9900" d="m88.5 45.5 1 2a10.123 10.123 0 0 1-4-1.5 4.932 4.932 0 0 1 3-.5z"/><path style="opacity:1" d="M88.5 45.5c2.186.01 3.02 1.01 2.5 3-.383-.556-.883-.89-1.5-1l-1-2zM75.5 55.5c-2.628-1.125-3.461-3.125-2.5-6a23.99 23.99 0 0 0 2.5 6zM77.5 49.5c-.17 1.322.163 2.489 1 3.5l8 1c-3 .667-6 .667-9 0-2.481-1.804-2.481-3.304 0-4.5zM90.5 52.5c1.025.397 1.192 1.063.5 2-.837 1.507-2.004 2.007-3.5 1.5a14.692 14.692 0 0 0 3-3.5zM75.5 55.5c1.422.209 2.755.709 4 1.5-1.852.773-3.186.273-4-1.5z"/><path style="opacity:1" fill="#003266" d="M3.5 86.5a640.408 640.408 0 0 1 27 9 1291.257 1291.257 0 0 1 .5 88c-14.457-13.241-23.457-29.575-27-49-.5-15.997-.667-31.997-.5-48zM158.5 86.5h3c.167 16.67 0 33.337-.5 50-3.553 18.771-12.553 34.438-27 47-.833-29.339-.667-58.672.5-88a255.2 255.2 0 0 0 24-9z"/><path style="opacity:1" fill="#fefffe" d="M33.5 96.5c9.308 3.317 18.641 6.65 28 10a1105.028 1105.028 0 0 1 0 94c-10.322-3.038-19.488-8.038-27.5-15-.5-29.665-.667-59.331-.5-89zM130.5 96.5a1322.64 1322.64 0 0 1 .5 89c-8.052 6.968-17.218 11.968-27.5 15-1-31.326-1.333-62.66-1-94a231.714 231.714 0 0 0 28-10z"/><path style="opacity:1" fill="#003266" d="M63.5 107.5a212.443 212.443 0 0 1 19 6 182.2 182.2 0 0 0 17-6c1 31.326 1.333 62.66 1 94a272.07 272.07 0 0 1-18.5 1c-6.159.221-12.159-.446-18-2-.5-30.998-.667-61.998-.5-93z"/><path style="opacity:1" fill="#fefffe" d="M-.5 131.5c7.173 40.17 30.506 65.17 70 75h-70v-75zM165.5 133.5v73h-70c38.642-9.642 61.975-33.976 70-73z"/></svg>
